src/assets/icons/cycle.svg

<svg viewBox="0 0 21 21" xmlns="http://www.w3.org/2000/svg">
<path d="M5.9917 12.502C5.86037 12.502 5.73032 12.5278 5.60898 12.5781C5.48764 12.6283 5.37739 12.702 5.28452 12.7948C5.19166 12.8877 5.118 12.998 5.06776 13.1193C5.01751 13.2406 4.99167 13.3707 4.9917 13.502V15.2843C3.70275 13.8266 2.99141 11.9479 2.9917 10.002C2.99152 9.70794 3.00913 9.41411 3.04443 9.12215C3.06062 8.99159 3.05089 8.85911 3.01579 8.73232C2.98069 8.60553 2.92092 8.48691 2.83989 8.38327C2.75887 8.27962 2.65818 8.19298 2.54361 8.12831C2.42904 8.06364 2.30284 8.02222 2.17223 8.00642C2.04162 7.99061 1.90918 8.00074 1.78249 8.03621C1.65581 8.07169 1.53736 8.13181 1.43396 8.21315C1.33055 8.29448 1.24421 8.39542 1.17988 8.51018C1.11555 8.62494 1.0745 8.75126 1.05908 8.88192C1.01379 9.25356 0.991286 9.62763 0.991705 10.002C0.993064 12.3882 1.85066 14.6946 3.40857 16.502H1.9917C1.72649 16.502 1.47213 16.6074 1.2846 16.7949C1.09706 16.9825 0.991705 17.2368 0.991705 17.502C0.991705 17.7672 1.09706 18.0216 1.2846 18.2091C1.47213 18.3967 1.72649 18.502 1.9917 18.502H5.9917C6.1481 18.5001 6.30177 18.4608 6.4399 18.3874C6.57804 18.314 6.69664 18.2087 6.78583 18.0802C6.79749 18.0648 6.81238 18.0534 6.82324 18.0372C6.8299 18.0273 6.83008 18.0155 6.8363 18.0054C6.88396 17.9248 6.91967 17.8378 6.9423 17.7471C6.95711 17.6961 6.96762 17.6439 6.97373 17.5912C6.9766 17.5603 6.99173 17.5337 6.99173 17.5021V13.5021C6.99177 13.3707 6.96593 13.2407 6.91569 13.1193C6.86545 12.998 6.79179 12.8877 6.69892 12.7948C6.60605 12.702 6.49579 12.6283 6.37444 12.5781C6.2531 12.5278 6.12304 12.502 5.9917 12.502ZM7.4917 4.00203H5.70923C7.16704 2.71314 9.04583 2.0018 10.9917 2.00203C11.2856 2.00132 11.5793 2.01894 11.8711 2.05477C12.0015 2.07061 12.1338 2.0606 12.2603 2.02532C12.3869 1.99004 12.5053 1.93018 12.6087 1.84916C12.7121 1.76813 12.7986 1.66753 12.8631 1.55309C12.9277 1.43866 12.969 1.31263 12.9849 1.18221C13.0007 1.05178 12.9907 0.919516 12.9554 0.792959C12.9201 0.666402 12.8603 0.548032 12.7793 0.444609C12.6982 0.341186 12.5976 0.254734 12.4832 0.190191C12.3688 0.125647 12.2427 0.084275 12.1123 0.0684369C11.7405 0.0235779 11.3662 0.00140037 10.9917 0.00202708C8.60557 0.00332419 6.29912 0.860858 4.49171 2.41872V1.00203C4.49171 0.736811 4.38635 0.482457 4.19881 0.29492C4.01128 0.107384 3.75692 0.00202708 3.49171 0.00202708C3.22649 0.00202708 2.97213 0.107384 2.7846 0.29492C2.59706 0.482457 2.4917 0.736811 2.4917 1.00203V5.00203C2.49799 5.06812 2.51117 5.13338 2.53101 5.19674L2.53125 5.19796C2.55554 5.32101 2.60348 5.43818 2.67242 5.54296L2.68384 5.55986C2.74992 5.65596 2.83274 5.7394 2.92834 5.8062C2.93927 5.8142 2.9447 5.82646 2.95605 5.83409C2.97034 5.84355 2.98652 5.84655 3.00111 5.85521C3.05782 5.88932 3.11791 5.91748 3.18042 5.93921C3.26491 5.9686 3.35299 5.98638 3.44226 5.99206C3.45959 5.99298 3.47419 6.00206 3.49171 6.00206H7.4917C7.75692 6.00206 8.01128 5.8967 8.19881 5.70916C8.38635 5.52163 8.4917 5.26727 8.4917 5.00206C8.4917 4.73684 8.38635 4.48249 8.19881 4.29495C8.01128 4.10741 7.75692 4.00206 7.4917 4.00206V4.00203ZM19.4522 14.8061C19.4279 14.683 19.3799 14.5658 19.3109 14.461L19.2996 14.4442C19.2335 14.3481 19.1506 14.2646 19.0549 14.1978C19.044 14.1898 19.0386 14.1775 19.0273 14.1699C19.0165 14.1628 19.0037 14.1626 18.9927 14.1558C18.8659 14.0853 18.7269 14.0394 18.583 14.0204C18.5514 14.0174 18.5241 14.002 18.4917 14.002H14.4917C14.2265 14.002 13.9721 14.1073 13.7846 14.2949C13.5971 14.4824 13.4917 14.7368 13.4917 15.002C13.4917 15.2672 13.5971 15.5215 13.7846 15.7091C13.9721 15.8966 14.2265 16.002 14.4917 16.002H16.2741C14.8163 17.2909 12.9376 18.0022 10.9917 18.002C10.6977 18.0024 10.404 17.9844 10.1123 17.9483C9.8489 17.9163 9.58358 17.9902 9.37471 18.1539C9.16583 18.3175 9.03052 18.5574 8.99854 18.8208C8.96655 19.0842 9.04051 19.3496 9.20415 19.5584C9.36778 19.7673 9.60769 19.9026 9.87109 19.9346C10.2429 19.9794 10.6172 20.0019 10.9917 20.002C13.3778 20.0007 15.6843 19.1431 17.4917 17.5853V19.002C17.4917 19.2672 17.5971 19.5216 17.7846 19.7091C17.9721 19.8967 18.2265 20.002 18.4917 20.002C18.7569 20.002 19.0113 19.8967 19.1988 19.7091C19.3863 19.5216 19.4917 19.2672 19.4917 19.002V15.002C19.4854 14.9359 19.4722 14.8707 19.4524 14.8073L19.4522 14.8061ZM19.9917 3.50203C20.2569 3.50203 20.5113 3.39667 20.6988 3.20913C20.8863 3.0216 20.9917 2.76724 20.9917 2.50203C20.9917 2.23681 20.8863 1.98246 20.6988 1.79492C20.5113 1.60738 20.2569 1.50203 19.9917 1.50203H15.9917C15.9266 1.5083 15.8623 1.52127 15.7999 1.54073L15.7932 1.54207C15.6718 1.56636 15.5561 1.61373 15.4525 1.6816L15.4329 1.69484C15.3373 1.76081 15.2542 1.84338 15.1876 1.93862C15.1798 1.94942 15.1676 1.95473 15.1602 1.9659C15.153 1.97664 15.1528 1.98934 15.1461 2.00026C15.0747 2.12785 15.0284 2.26792 15.0097 2.41292C15.0068 2.44381 14.9917 2.47042 14.9917 2.50203V6.50203C14.9917 6.76724 15.0971 7.0216 15.2846 7.20913C15.4721 7.39667 15.7265 7.50203 15.9917 7.50203C16.2569 7.50203 16.5113 7.39667 16.6988 7.20913C16.8863 7.0216 16.9917 6.76724 16.9917 6.50203V4.71915C18.2806 6.17712 18.9919 8.05601 18.9917 10.002C18.9919 10.2961 18.9743 10.5899 18.939 10.8819C18.9073 11.1451 18.9813 11.4101 19.1448 11.6188C19.3083 11.8276 19.5479 11.9629 19.811 11.9951C19.8516 11.9998 19.8923 12.0021 19.9331 12.002C20.1773 12.0017 20.4129 11.912 20.5955 11.7499C20.7781 11.5878 20.8951 11.3645 20.9243 11.1221C20.9696 10.7505 20.9921 10.3764 20.9917 10.002C20.9903 7.61585 20.1327 5.30939 18.5747 3.50203H19.9917Z"/>
</svg>

<svg viewBox="0 0 21 21" xmlns="http://www.w3.org/2000/svg">
  <path d="M5.992 12.502a1 1 0 0 0-1 1v1.782a7.972 7.972 0 0 1-2-5.282c0-.294.017-.588.052-.88a1 1 0 1 0-1.985-.24 9.174 9.174 0 0 0-.067 1.12 9.964 9.964 0 0 0 2.417 6.5H1.992a1 1 0 0 0 0 2h4a.98.98 0 0 0 .794-.422c.011-.015.026-.027.037-.043.007-.01.007-.021.013-.032a.968.968 0 0 0 .106-.258.953.953 0 0 0 .032-.156c.003-.03.018-.057.018-.089v-4a1 1 0 0 0-1-1zm1.5-8.5H5.709a7.974 7.974 0 0 1 5.283-2c.294 0 .587.017.88.053a1 1 0 1 0 .24-1.987 9.227 9.227 0 0 0-1.12-.066 9.964 9.964 0 0 0-6.5 2.417V1.002a1 1 0 0 0-2 0v4c.006.066.02.131.039.195v.001a.97.97 0 0 0 .141.345l.012.017c.066.096.149.18.244.246.011.008.017.02.028.028.014.01.03.013.045.021a.959.959 0 0 0 .441.137c.018.001.032.01.05.01h4a1 1 0 1 0 0-2zm11.96 10.804a.969.969 0 0 0-.141-.345l-.011-.017a.973.973 0 0 0-.245-.246c-.011-.008-.016-.02-.028-.028-.01-.007-.023-.007-.034-.014a1.154 1.154 0 0 0-.41-.136c-.032-.003-.059-.018-.091-.018h-4a1 1 0 1 0 0 2h1.782a7.974 7.974 0 0 1-5.282 2c-.294 0-.588-.018-.88-.054a1 1 0 1 0-.24 1.987 9.39 9.39 0 0 0 1.12.067 9.965 9.965 0 0 0 6.5-2.417v1.417a1 1 0 0 0 2 0v-4a.958.958 0 0 0-.04-.195zm.54-11.304a1 1 0 1 0 0-2h-4a.95.95 0 0 0-.192.039l-.007.001a.969.969 0 0 0-.34.14l-.02.013a.975.975 0 0 0-.245.244c-.008.01-.02.016-.028.027-.007.01-.007.023-.014.034a1.145 1.145 0 0 0-.136.413c-.003.03-.018.057-.018.089v4a1 1 0 0 0 2 0V4.719a7.975 7.975 0 0 1 2 5.283c0 .294-.018.588-.053.88a1 1 0 0 0 1.985.24c.046-.371.068-.746.068-1.12a9.964 9.964 0 0 0-2.417-6.5h1.417z"/>
</svg>
